X:29
T:Tombigbee Waltz
R:Waltz
M:3/4
L:1/4
G:Key: G
Z:abc-transcription Josh Larios <hades@elsewhere.org>, 2017.02.13
K:G
B/A/ [P:A]|: "G"GBB | d2 B/A/ | GBB | d2 B | "Am"BAA |
| ABd |1 "C"e2 d | "D7"B2 B/A/ :|2 "C"ed "D"F | "G"G2 d || 
[P:B]|: "G"g2 d | "G/B"g2 d | "C"e>dc | "G"d2 B | "Am"BAA |
|ABd |1 "C"e2 d | "D"B2 d :|2 "C"ed "D"F | "G"G2 "<("B/">)"A/ |] 

